X:1
T:Title
%%score { ( 1 3 ) | ( 2 4 ) }
L:1/8
Q:1/4=104
M:4/4
K:F
V:1 treble nm="Grand Piano"
V:3 treble 
V:2 bass 
V:4 bass 
V:1
 c2 A2 [EG]2 [EA]2 | F2 F2 F4 | [DB]2 [Fd]2 [Fc]2 [CFA]2 | [CEG]2 [=B,FG]2 [CEG]4 | A2 A2 B2 G2 | %5
w: Geo.~C.~Stebbins * * *|||||
 c2 c2 d4 | [Fd][CFB][CFA][B,DG] [Fc]2 [CE]2 | [CF]6 z2 | [Ac]4 z4 | [CAc]2 [C_A=B]2 [EG_B]4 | %10
w: |||||
 [GB]4 z4 | [Bd]2 [B^c]2 [A=c]4 | [Ac]4 z4 | e2 _e2 d4 | [Fd][DFB][CDA][B,DG] [Fc]2 E2 | F6 z2 |] %16
w: ||||||
V:2
 [F,A,F]2 [F,CF]2 [C,B,]2 [C,C]2 | [F,A,C]2 [F,B,D]2 [F,A,C]4 | [B,,B,]2 [B,,B,]2 [F,A,]2 F,2 | %3
 C,2 G,,2 C,4 | [F,CF]2 [F,CF]2 [G,CE]2 [B,CE]2 | [A,CF]2 [F,A,F]2 [B,F]4 | %6
 [B,,B,]G,,A,,B,, [C,A,]2 [C,B,]2 | [F,A,]6 z2 | [F,C]2 z2[K:treble] z A[K:bass] z z/ F/ | %9
 F,2 F,2 C,4 | C,2 C,2 [C,C]2 [C,C]2 | [F,F]2 [F,F]2 [F,F]4 | [F,C]2 z2 [F,F]2 z z/[K:treble] A/ | %13
 [G,CG]2 [A,CF]2 [B,F]4 | [B,,B,]G,,A,,B,, [C,A,]2 [C,B,C]2 | [F,A,C]6 z2 |] %16
V:3
 x8 | x8 | x8 | x8 | x8 | x8 | x8 | x8 | z2 [F,C]2 [_A=B]c [F=Ad]>A | x8 | %10
 E2 E2 [^FA][GB] [Be]>[EGB] | x8 | z2 [F,C]2 [_A=B][=Ac] [Af]>c | x8 | x8 | x8 |] %16
V:4
 x8 | x8 | x8 | x8 | x8 | x8 | x8 | x8 | z4[K:treble] [F,F]2[K:bass] F,2 | x8 | x8 | x8 | %12
 z4 z2 [F,C]2[K:treble] | x8 | x8 | x8 |] %16

